X:71
T:Kenderbeck's Q.S.
S:American Veteran Fifer #71 - also found in Bruce and Emmett
C:C.E. Larrabee
M:2/4
L:1/16
Q:1/8=180
K:D 
%%MIDI program 72
%%MIDI transpose 8
%%MIDI ratio 3 1
ag | (fa)gf (eg)fe | d2d2 d2ed | (ce)dc (Bd)cB | A2A2 A2BA |
(GB)AG (FA)GF | EFGA Bcde | (fa)gf (eg)fe | d2d2d2 :|
|: AG | FAdA fdAF | EAcA ecAG | FAdf a2(ba) | gfed cBAG |
FAdA fdAF | EAcA ecAG | FAdf agec | d2d2d2  :|


